X: 13637
T: Foliada De Campelo
R: mazurka
M: 3/4
K: Bminor
FA|:d2 cB A2|A2 FA FA|A2 GF G2|G2 EG EG|
c2 BA G2|G2 EG EG|G2 FE F2|F2 FA FA|d2 cB A2|A2 FA FA|
A2GFG2|G2EG EG|c2B2A2|B2A2G2|1 F4|F2FA FA:|2 F6|F2D2F2||
A4B2|G4A2|FG FED2|D2F2A2|:d4e2|c4d2|Bc BAG2|
G2E2G2|c4d2|B4c2|AB AGF2|1 F2F2A2:|2 F4 F2||

